X: 38941
T: Susey Street
R: reel
M: 4/4
K: Aminor
|:a~e3 f2ed|cee^f gdBd|c2AB Adea|^gabg aeeg|
a~e3 fedB|cee^f gdBd|c2Bc Adea|1 ^gabg a2eg:|2 ^gabg aeeg||
K:A
|:bggf gfeg|aga=f ~f2ed|=c2Ac BcdB|Addc dffe|
bggf gfeg|aga=f ~f2ed|=c2Ac Bcda|1 gabg aeeg:|2 gabg a4||

